lib/brands/logos/splunk.svg

<svg xmlns="http://www.w3.org/2000/svg" fill="none" aria-hidden="true" viewBox="0 0 182 64"><g id="Splunk"><path id="Vector" fill="#0C1724" d="M22.9891 37.2726C22.9891 38.4163 22.7472 39.4793 22.2634 40.4615C21.7796 41.4303 21.0941 42.2646 20.2339 42.9373C19.3603 43.6235 18.3255 44.1482 17.1294 44.5251C15.9333 44.9017 14.6162 45.0901 13.1917 45.0901C11.4848 45.0901 9.95274 44.8614 8.6088 44.3906C7.26485 43.933 5.90744 43.1526 4.55005 42.0761L6.79446 38.4297C7.86961 39.3313 8.83726 39.9906 9.71082 40.4077C10.5709 40.8249 11.458 41.0267 12.3718 41.0267C13.4873 41.0267 14.3743 40.744 15.0598 40.1655C15.7452 39.5869 16.0677 38.82 16.0677 37.8377C16.0677 37.4206 16.0005 37.0304 15.8796 36.6671C15.7586 36.3037 15.5301 35.927 15.2076 35.5368C14.885 35.1601 14.4281 34.7295 13.8502 34.2856C13.2857 33.8414 12.5466 33.2763 11.6327 32.617C10.9473 32.1326 10.2618 31.6213 9.60331 31.11C8.94477 30.5852 8.35344 30.0335 7.80242 29.4415C7.26485 28.8495 6.83477 28.1902 6.49878 27.4501C6.17623 26.7236 6.00152 25.8758 6.00152 24.9475C6.00152 23.871 6.23 22.8752 6.6735 21.9872C7.117 21.0992 7.73522 20.3457 8.5147 19.7133C9.29419 19.0809 10.2215 18.5965 11.3236 18.2466C12.4122 17.8968 13.5948 17.7219 14.885 17.7219C16.2424 17.7219 17.5461 17.8968 18.8094 18.2601C20.0726 18.6234 21.2419 19.1481 22.3305 19.8478L20.3011 23.131C18.9169 22.1621 17.452 21.6643 15.9199 21.6643C14.9925 21.6643 14.2131 21.9065 13.6083 22.3909C13.0035 22.8752 12.6944 23.4808 12.6944 24.2208C12.6944 24.9205 12.9632 25.5529 13.5008 26.1046C14.0383 26.6697 14.9657 27.4367 16.2827 28.4592C17.6133 29.4281 18.7153 30.2893 19.5754 31.0158C20.449 31.7424 21.1345 32.4421 21.6451 33.0879C22.1558 33.7339 22.4919 34.3797 22.6934 35.0525C22.8949 35.7386 22.9891 36.4652 22.9891 37.2726ZM46.0378 31.1235C46.0378 32.1326 45.9302 33.2226 45.7153 34.3931C45.5136 35.5638 45.1508 36.6402 44.6402 37.6359C44.1294 38.6315 43.4709 39.4524 42.6511 40.0848C41.8313 40.7306 40.783 41.0535 39.5331 41.0535C37.4365 41.0535 35.7834 40.2193 34.574 38.5374C33.3643 36.869 32.7596 34.5681 32.7596 31.6482C32.7596 28.6476 33.3643 26.2794 34.6008 24.5169C35.8238 22.7541 37.4903 21.8795 39.5869 21.8795C41.576 21.8795 43.1483 22.7138 44.3041 24.3554C45.46 26.0105 46.0378 28.271 46.0378 31.1235ZM53.322 30.8678C53.322 28.9168 53.0398 27.1406 52.4888 25.5529C51.9243 23.9518 51.1448 22.5793 50.1099 21.4221C49.0752 20.2649 47.8655 19.3769 46.4544 18.731C45.0432 18.0852 43.4843 17.7622 41.7775 17.7622C39.896 17.7622 38.2429 18.1255 36.8183 18.8252C35.3938 19.5384 34.0632 20.6551 32.8536 22.189L32.8134 18.3812H26.107V57.523H32.8V40.9863C33.4585 41.7532 34.09 42.3991 34.7083 42.9239C35.3131 43.4486 35.9313 43.8792 36.563 44.2021C37.1946 44.5251 37.8531 44.7672 38.552 44.9019C39.2509 45.0364 40.0035 45.1037 40.7964 45.1037C42.5704 45.1037 44.237 44.7403 45.7691 44.0407C47.3012 43.3276 48.6316 42.3319 49.7471 41.0401C50.8626 39.7483 51.7362 38.2413 52.3679 36.5325C53.013 34.8103 53.322 32.913 53.322 30.8678ZM56.3057 44.4713H63.1866V6.17712H56.3057V44.4713ZM92.5386 44.4847V18.3543H85.6575V32.4151C85.6575 33.6665 85.6037 34.6353 85.4962 35.3216C85.3887 36.0078 85.2139 36.6132 84.972 37.1785C84.0045 39.3313 82.2169 40.4211 79.6231 40.4211C77.5938 40.4211 76.1826 39.6946 75.3762 38.2279C75.0537 37.6762 74.8387 37.0438 74.7177 36.3441C74.5968 35.6445 74.5296 34.6353 74.5296 33.3033V18.3543H67.6485V33.1956C67.6485 34.2047 67.6619 35.0659 67.6755 35.7522C67.6889 36.4384 67.7427 37.0708 67.8098 37.6089C67.877 38.1472 67.9576 38.6315 68.0517 39.0487C68.1323 39.4658 68.2668 39.8694 68.4415 40.2462C69.0731 41.8474 70.081 43.0584 71.4922 43.8792C72.9034 44.6999 74.6371 45.1037 76.68 45.1037C78.5212 45.1037 80.1472 44.7806 81.545 44.1348C82.9427 43.489 84.3001 42.4394 85.6172 40.9728L85.6306 44.4713L92.5386 44.4847ZM122.186 44.4713V29.6569C122.186 28.6476 122.173 27.7865 122.159 27.0733C122.146 26.3602 122.106 25.7413 122.025 25.2166C121.958 24.6917 121.864 24.2343 121.769 23.8441C121.662 23.4405 121.541 23.0502 121.407 22.6734C120.775 21.1126 119.767 19.9016 118.356 19.0539C116.945 18.2063 115.211 17.7757 113.155 17.7757C111.313 17.7757 109.687 18.0986 108.29 18.7445C106.892 19.3903 105.534 20.4533 104.217 21.9065L104.204 18.4081H97.2826V44.4847H104.217V30.4104C104.217 29.1993 104.258 28.244 104.352 27.5712C104.432 26.8985 104.607 26.266 104.849 25.6606C105.293 24.611 105.991 23.8307 106.919 23.2924C107.846 22.7541 108.948 22.4851 110.238 22.4851C112.268 22.4851 113.679 23.2117 114.485 24.6783C114.794 25.23 115.009 25.8624 115.13 26.5486C115.251 27.2349 115.318 28.2574 115.318 29.5761V44.4577L122.186 44.4713ZM150.65 42.7489L140.168 29.7106L149.024 20.2111L143.81 17.9641L134.591 28.661H133.865V6.17712H126.93V44.4713H133.865V30.5986L144.24 44.996L150.65 42.7489ZM177.45 33.384V29.1186L156.605 18.6503V23.3462L172.759 31.2176L156.605 39.1966V43.785L177.45 33.384ZM158.62 11.8822C157.344 11.8822 156.308 12.9317 156.308 14.2235C156.308 15.5421 157.344 16.5782 158.62 16.5782C159.911 16.5782 160.932 15.5421 160.932 14.2235C160.932 12.9183 159.911 11.8822 158.62 11.8822ZM158.635 12.2455C159.669 12.2455 160.502 13.1336 160.502 14.2369C160.502 15.3403 159.669 16.2283 158.635 16.2149C157.586 16.2149 156.752 15.3403 156.752 14.2235C156.752 13.1336 157.586 12.2455 158.635 12.2455ZM158.191 14.4657H158.472C158.809 14.4657 158.97 14.5868 159.037 14.9231C159.091 15.273 159.158 15.5017 159.212 15.5825H159.656C159.615 15.5017 159.547 15.3403 159.495 14.9366C159.44 14.5464 159.292 14.3446 159.051 14.3042V14.2773C159.334 14.1965 159.562 13.9813 159.562 13.6449C159.562 13.4027 159.48 13.2143 159.319 13.1067C159.158 12.9856 158.903 12.9048 158.513 12.9048C158.204 12.9048 157.989 12.9317 157.775 12.9721V15.5825H158.191V14.4657ZM158.191 13.2547C158.258 13.2412 158.352 13.2278 158.486 13.2278C158.957 13.2278 159.118 13.4565 159.118 13.6853C159.118 14.0082 158.821 14.1293 158.486 14.1293H158.191V13.2547Z"/></g></svg>

<svg xmlns="http://www.w3.org/2000/svg" fill="none" aria-hidden="true" viewBox="0 0 182 64"><path fill="#0C1724" d="M22.99 37.273a7.118 7.118 0 0 1-.727 3.188 7.224 7.224 0 0 1-2.03 2.476c-.873.687-1.907 1.211-3.104 1.588-1.196.377-2.513.565-3.937.565-1.707 0-3.24-.229-4.583-.7-1.344-.457-2.702-1.237-4.059-2.314l2.244-3.646c1.076.901 2.043 1.56 2.917 1.978.86.417 1.747.619 2.66.619 1.116 0 2.003-.283 2.689-.861.685-.58 1.008-1.346 1.008-2.328 0-.417-.068-.808-.188-1.17-.121-.364-.35-.741-.672-1.131a9.13 9.13 0 0 0-1.358-1.251 66.383 66.383 0 0 0-2.217-1.669 56.591 56.591 0 0 1-2.03-1.507 16.44 16.44 0 0 1-1.8-1.668 7.607 7.607 0 0 1-1.304-1.992c-.323-.726-.497-1.574-.497-2.502 0-1.077.228-2.073.671-2.96a6.842 6.842 0 0 1 1.842-2.275c.78-.632 1.707-1.117 2.809-1.466 1.088-.35 2.27-.525 3.561-.525 1.357 0 2.661.175 3.924.538 1.264.363 2.433.888 3.521 1.588l-2.029 3.283c-1.384-.969-2.849-1.467-4.381-1.467-.928 0-1.707.242-2.312.727-.604.484-.914 1.09-.914 1.83 0 .7.27 1.332.807 1.884.537.565 1.465 1.332 2.782 2.354a59.16 59.16 0 0 1 3.292 2.557c.874.726 1.56 1.426 2.07 2.072.51.646.847 1.292 1.048 1.965.202.686.296 1.412.296 2.22Zm23.048-6.15c0 1.01-.108 2.1-.323 3.27a11.234 11.234 0 0 1-1.075 3.243c-.51.995-1.17 1.816-1.989 2.449-.82.646-1.868.968-3.118.968-2.096 0-3.75-.834-4.959-2.516-1.21-1.668-1.814-3.969-1.814-6.889 0-3 .604-5.369 1.84-7.131 1.224-1.763 2.89-2.637 4.987-2.637 1.989 0 3.561.834 4.717 2.475 1.156 1.655 1.734 3.916 1.734 6.768Zm7.284-.255c0-1.951-.282-3.727-.833-5.315-.565-1.601-1.344-2.974-2.38-4.13a10.937 10.937 0 0 0-3.655-2.692c-1.41-.646-2.97-.969-4.676-.969-1.882 0-3.535.363-4.96 1.063-1.424.713-2.755 1.83-3.964 3.364l-.04-3.808h-6.707v39.142H32.8V40.986c.659.767 1.29 1.413 1.908 1.938a9.347 9.347 0 0 0 1.855 1.278c.632.323 1.29.565 1.989.7.699.134 1.452.202 2.244.202 1.774 0 3.441-.364 4.973-1.063a11.743 11.743 0 0 0 3.978-3c1.116-1.293 1.99-2.8 2.62-4.508.646-1.723.955-3.62.955-5.665Zm2.984 13.603h6.88V6.177h-6.88v38.294Zm36.233.014v-26.13h-6.882v14.06c0 1.252-.053 2.22-.16 2.907a7.674 7.674 0 0 1-.525 1.856c-.968 2.153-2.755 3.243-5.349 3.243-2.03 0-3.44-.726-4.247-2.193-.322-.552-.537-1.184-.658-1.884s-.188-1.709-.188-3.04v-14.95h-6.882v14.842c0 1.009.014 1.87.028 2.556a17.932 17.932 0 0 0 .376 3.297c.08.417.215.82.39 1.197.631 1.601 1.639 2.812 3.05 3.633 1.411.82 3.145 1.225 5.188 1.225 1.841 0 3.467-.323 4.865-.97 1.398-.645 2.755-1.695 4.072-3.161l.014 3.498 6.908.014Zm29.647-.014V29.657c0-1.01-.013-1.87-.027-2.584a14.131 14.131 0 0 0-.134-1.856 12.394 12.394 0 0 0-.256-1.373 14.852 14.852 0 0 0-.362-1.17c-.632-1.561-1.64-2.772-3.051-3.62-1.411-.848-3.145-1.278-5.201-1.278-1.842 0-3.468.323-4.865.968-1.398.646-2.756 1.71-4.073 3.163l-.013-3.499h-6.921v26.077h6.934V30.41c0-1.21.041-2.166.135-2.839a7.51 7.51 0 0 1 .497-1.91c.444-1.05 1.142-1.83 2.07-2.369.927-.538 2.029-.807 3.319-.807 2.03 0 3.441.727 4.247 2.193.309.552.524 1.184.645 1.87.121.687.188 1.71.188 3.028v14.882l6.868.013Zm28.464-1.722L140.168 29.71l8.856-9.5-5.214-2.247-9.219 10.697h-.726V6.177h-6.935v38.294h6.935V30.6l10.375 14.397 6.41-2.247Zm26.8-9.365v-4.265L156.605 18.65v4.696l16.154 7.872-16.154 7.979v4.588l20.845-10.401Zm-18.83-21.502c-1.276 0-2.312 1.05-2.312 2.341 0 1.32 1.036 2.355 2.312 2.355 1.291 0 2.312-1.036 2.312-2.354 0-1.306-1.021-2.342-2.312-2.342Zm.015.364c1.034 0 1.867.888 1.867 1.99 0 1.104-.833 1.992-1.867 1.979-1.049 0-1.883-.875-1.883-1.992 0-1.09.834-1.978 1.883-1.978Zm-.444 2.22h.281c.337 0 .498.12.565.457.054.35.121.579.175.66h.444c-.041-.081-.109-.243-.161-.646-.055-.39-.203-.592-.444-.633v-.027c.283-.08.511-.296.511-.632 0-.242-.082-.43-.243-.538-.161-.121-.416-.202-.806-.202-.309 0-.524.027-.738.067v2.61h.416v-1.116Zm0-1.211a1.46 1.46 0 0 1 .295-.027c.471 0 .632.229.632.457 0 .323-.297.444-.632.444h-.295v-.874Z"/></svg>
